resources/svg/mobile-o.svg

<svg width="15" height="15" viewBox="0 0 15 15" fill="none" xmlns="http://www.w3.org/2000/svg">
<path d="M6 11.5H9M3.5 14.5H11.5C12.0523 14.5 12.5 14.0523 12.5 13.5V1.5C12.5 0.947715 12.0523 0.5 11.5 0.5H3.5C2.94772 0.5 2.5 0.947716 2.5 1.5V13.5C2.5 14.0523 2.94772 14.5 3.5 14.5Z" stroke="black"/>
</svg>

<svg viewBox="0 0 15 15" fill="none" xmlns="http://www.w3.org/2000/svg" fill="currentColor"><path d="M6 11.5h3m-5.5 3h8a1 1 0 001-1v-12a1 1 0 00-1-1h-8a1 1 0 00-1 1v12a1 1 0 001 1z" stroke="currentColor"/></svg>
